static/img/svg/bx-font-size.svg

<svg xmlns="http://www.w3.org/2000/svg" width="24" height="24"><path d="M8 6h6v14h2V6h6V4H8z"/><path d="M6 20h2v-9h4V9H2v2h4z"/></svg>

<svg xmlns="http://www.w3.org/2000/svg" width="24" height="24" viewBox="0 0 24 24"><path d="M22 4L8 4 8 6 14 6 14 20 16 20 16 6 22 6z"/><path d="M2 11L6 11 6 20 8 20 8 11 12 11 12 9 2 9z"/></svg>
